img/photography/IMG_1681.xmp
<x:xmpmeta xmlns:x="adobe:ns:meta/" x:xmptk="Adobe XMP Core 5.6-c140 79.160451, 2017/05/06-01:08:21        ">
 <rdf:RDF xmlns:rdf="http://www.w3.org/1999/02/22-rdf-syntax-ns#">
  <rdf:Description rdf:about=""
    xmlns:xmp="http://ns.adobe.com/xap/1.0/"
    xmlns:tiff="http://ns.adobe.com/tiff/1.0/"
    xmlns:exif="http://ns.adobe.com/exif/1.0/"
    xmlns:dc="http://purl.org/dc/elements/1.1/"
    xmlns:aux="http://ns.adobe.com/exif/1.0/aux/"
    xmlns:photoshop="http://ns.adobe.com/photoshop/1.0/"
    xmlns:xmpMM="http://ns.adobe.com/xap/1.0/mm/"
    xmlns:stEvt="http://ns.adobe.com/xap/1.0/sType/ResourceEvent#"
    xmlns:crs="http://ns.adobe.com/camera-raw-settings/1.0/"
   xmp:Rating="0"
   xmp:ModifyDate="2019-12-29T12:03:00.45Z"
   xmp:CreateDate="2019-12-29T12:03:00.45Z"
   xmp:MetadataDate="2019-12-31T17:21:32Z"
   tiff:Make="Canon"
   tiff:Model="Canon EOS 90D"
   tiff:Orientation="1"
   exif:ExifVersion="0231"
   exif:ExposureTime="1/125"
   exif:ShutterSpeedValue="6965784/1000000"
   exif:FNumber="5/1"
   exif:ApertureValue="4643856/1000000"
   exif:ExposureProgram="3"
   exif:SensitivityType="2"
   exif:RecommendedExposureIndex="100"
   exif:ExposureBiasValue="-2/3"
   exif:MaxApertureValue="3/1"
   exif:MeteringMode="5"
   exif:FocalLength="50/1"
   exif:CustomRendered="0"
   exif:ExposureMode="0"
   exif:WhiteBalance="0"
   exif:SceneCaptureType="0"
   exif:FocalPlaneXResolution="102200864/32768"
   exif:FocalPlaneYResolution="102200864/32768"
   exif:FocalPlaneResolutionUnit="3"
   exif:DateTimeOriginal="2019-12-29T12:03:00.45Z"
   dc:format="image/x-canon-cr3"
   aux:SerialNumber="063051000575"
   aux:LensInfo="17/1 50/1 0/0 0/0"
   aux:Lens="17.0-50.0 mm"
   aux:LensID="240"
   aux:LensSerialNumber="0000000000"
   aux:ImageNumber="0"
   aux:ApproximateFocusDistance="194/100"
   aux:FlashCompensation="0/1"
   aux:Firmware="1.0.0"
   photoshop:DateCreated="2019-12-29T12:03:00.45Z"
   photoshop:SidecarForExtension="CR3"
   photoshop:EmbeddedXMPDigest="8E789E7EF970993BD5F007AC2476590A"
   xmpMM:DocumentID="A8F5AA59E4B8A4350E6614BAD943DAD1"
   xmpMM:OriginalDocumentID="A8F5AA59E4B8A4350E6614BAD943DAD1"
   xmpMM:InstanceID="xmp.iid:59b22b4d-a837-b047-b683-c24b24b32e26"
   crs:Version="12.0"
   crs:ProcessVersion="11.0"
   crs:WhiteBalance="Custom"
   crs:Temperature="6100"
   crs:Tint="+13"
   crs:Saturation="0"
   crs:Sharpness="40"
   crs:LuminanceSmoothing="0"
   crs:ColorNoiseReduction="25"
   crs:VignetteAmount="0"
   crs:ShadowTint="0"
   crs:RedHue="0"
   crs:RedSaturation="0"
   crs:GreenHue="0"
   crs:GreenSaturation="0"
   crs:BlueHue="0"
   crs:BlueSaturation="0"
   crs:Vibrance="+50"
   crs:HueAdjustmentRed="0"
   crs:HueAdjustmentOrange="0"
   crs:HueAdjustmentYellow="0"
   crs:HueAdjustmentGreen="0"
   crs:HueAdjustmentAqua="0"
   crs:HueAdjustmentBlue="0"
   crs:HueAdjustmentPurple="0"
   crs:HueAdjustmentMagenta="0"
   crs:SaturationAdjustmentRed="0"
   crs:SaturationAdjustmentOrange="0"
   crs:SaturationAdjustmentYellow="0"
   crs:SaturationAdjustmentGreen="0"
   crs:SaturationAdjustmentAqua="0"
   crs:SaturationAdjustmentBlue="0"
   crs:SaturationAdjustmentPurple="0"
   crs:SaturationAdjustmentMagenta="0"
   crs:LuminanceAdjustmentRed="0"
   crs:LuminanceAdjustmentOrange="0"
   crs:LuminanceAdjustmentYellow="0"
   crs:LuminanceAdjustmentGreen="0"
   crs:LuminanceAdjustmentAqua="0"
   crs:LuminanceAdjustmentBlue="0"
   crs:LuminanceAdjustmentPurple="0"
   crs:LuminanceAdjustmentMagenta="0"
   crs:SplitToningShadowHue="0"
   crs:SplitToningShadowSaturation="0"
   crs:SplitToningHighlightHue="0"
   crs:SplitToningHighlightSaturation="0"
   crs:SplitToningBalance="0"
   crs:ParametricShadows="-7"
   crs:ParametricDarks="0"
   crs:ParametricLights="0"
   crs:ParametricHighlights="-51"
   crs:ParametricShadowSplit="25"
   crs:ParametricMidtoneSplit="50"
   crs:ParametricHighlightSplit="75"
   crs:SharpenRadius="+1.0"
   crs:SharpenDetail="25"
   crs:SharpenEdgeMasking="0"
   crs:PostCropVignetteAmount="0"
   crs:GrainAmount="0"
   crs:ColorNoiseReductionDetail="50"
   crs:ColorNoiseReductionSmoothness="50"
   crs:LensProfileEnable="0"
   crs:LensManualDistortionAmount="0"
   crs:PerspectiveVertical="0"
   crs:PerspectiveHorizontal="0"
   crs:PerspectiveRotate="0.0"
   crs:PerspectiveScale="100"
   crs:PerspectiveAspect="0"
   crs:PerspectiveUpright="0"
   crs:PerspectiveX="0.00"
   crs:PerspectiveY="0.00"
   crs:AutoLateralCA="0"
   crs:Exposure2012="-0.30"
   crs:Contrast2012="+30"
   crs:Highlights2012="-100"
   crs:Shadows2012="-100"
   crs:Whites2012="-100"
   crs:Blacks2012="-10"
   crs:Clarity2012="+15"
   crs:DefringePurpleAmount="0"
   crs:DefringePurpleHueLo="30"
   crs:DefringePurpleHueHi="70"
   crs:DefringeGreenAmount="0"
   crs:DefringeGreenHueLo="40"
   crs:DefringeGreenHueHi="60"
   crs:Dehaze="+10"
   crs:Texture="+20"
   crs:ToneMapStrength="0"
   crs:ConvertToGrayscale="False"
   crs:OverrideLookVignette="False"
   crs:ToneCurveName="Medium Contrast"
   crs:ToneCurveName2012="Linear"
   crs:CameraProfile="Adobe Standard"
   crs:CameraProfileDigest="418DA6060FE18E4AB89CD15B15C9353B"
   crs:LensProfileSetup="LensDefaults"
   crs:UprightVersion="151388160"
   crs:UprightCenterMode="0"
   crs:UprightCenterNormX="0.5"
   crs:UprightCenterNormY="0.5"
   crs:UprightFocalMode="0"
   crs:UprightFocalLength35mm="35"
   crs:UprightPreview="False"
   crs:UprightTransformCount="6"
   crs:UprightFourSegmentsCount="0"
   crs:ToggleStyleDigest="A4C5CE8158DEBC0C93554C8223E715A6"
   crs:ToggleStyleAmount="1"
   crs:HasSettings="True"
   crs:CropTop="0.14519"
   crs:CropLeft="0.168704"
   crs:CropBottom="0.906447"
   crs:CropRight="0.944978"
   crs:CropAngle="-0.514619"
   crs:CropConstrainToWarp="1"
   crs:HasCrop="True"
   crs:AlreadyApplied="False">
   <exif:ISOSpeedRatings>
    <rdf:Seq>
     <rdf:li>100</rdf:li>
    </rdf:Seq>
   </exif:ISOSpeedRatings>
   <exif:Flash
    exif:Fired="False"
    exif:Return="0"
    exif:Mode="0"
    exif:Function="False"
    exif:RedEyeMode="False"/>
   <dc:creator>
    <rdf:Seq>
     <rdf:li>DrummerGirl Photography</rdf:li>
    </rdf:Seq>
   </dc:creator>
   <dc:rights>
    <rdf:Alt>
     <rdf:li xml:lang="x-default">DrummerGirl Photography</rdf:li>
    </rdf:Alt>
   </dc:rights>
   <xmpMM:History>
    <rdf:Seq>
     <rdf:li
      stEvt:action="saved"
      stEvt:instanceID="xmp.iid:30b3a563-3b2d-3142-a4e0-c6c0dd6dd1c7"
      stEvt:when="2019-12-31T17:00:48Z"
      stEvt:softwareAgent="Adobe Photoshop Camera Raw 12.0 (Windows)"
      stEvt:changed="/metadata"/>
     <rdf:li
      stEvt:action="saved"
      stEvt:instanceID="xmp.iid:59b22b4d-a837-b047-b683-c24b24b32e26"
      stEvt:when="2019-12-31T17:21:32Z"
      stEvt:softwareAgent="Adobe Photoshop Camera Raw 12.0 (Windows)"
      stEvt:changed="/metadata"/>
    </rdf:Seq>
   </xmpMM:History>
   <crs:ToneCurve>
    <rdf:Seq>
     <rdf:li>0, 0</rdf:li>
     <rdf:li>32, 22</rdf:li>
     <rdf:li>64, 56</rdf:li>
     <rdf:li>128, 128</rdf:li>
     <rdf:li>192, 196</rdf:li>
     <rdf:li>255, 255</rdf:li>
    </rdf:Seq>
   </crs:ToneCurve>
   <crs:ToneCurveRed>
    <rdf:Seq>
     <rdf:li>0, 0</rdf:li>
     <rdf:li>255, 255</rdf:li>
    </rdf:Seq>
   </crs:ToneCurveRed>
   <crs:ToneCurveGreen>
    <rdf:Seq>
     <rdf:li>0, 0</rdf:li>
     <rdf:li>255, 255</rdf:li>
    </rdf:Seq>
   </crs:ToneCurveGreen>
   <crs:ToneCurveBlue>
    <rdf:Seq>
     <rdf:li>0, 0</rdf:li>
     <rdf:li>255, 255</rdf:li>
    </rdf:Seq>
   </crs:ToneCurveBlue>
   <crs:ToneCurvePV2012>
    <rdf:Seq>
     <rdf:li>0, 0</rdf:li>
     <rdf:li>255, 255</rdf:li>
    </rdf:Seq>
   </crs:ToneCurvePV2012>
   <crs:ToneCurvePV2012Red>
    <rdf:Seq>
     <rdf:li>0, 0</rdf:li>
     <rdf:li>255, 255</rdf:li>
    </rdf:Seq>
   </crs:ToneCurvePV2012Red>
   <crs:ToneCurvePV2012Green>
    <rdf:Seq>
     <rdf:li>0, 0</rdf:li>
     <rdf:li>255, 255</rdf:li>
    </rdf:Seq>
   </crs:ToneCurvePV2012Green>
   <crs:ToneCurvePV2012Blue>
    <rdf:Seq>
     <rdf:li>0, 0</rdf:li>
     <rdf:li>255, 255</rdf:li>
    </rdf:Seq>
   </crs:ToneCurvePV2012Blue>
   <crs:RetouchAreas>
    <rdf:Seq>
     <rdf:li>
      <rdf:Description
       crs:SpotType="heal"
       crs:SourceState="sourceSetExplicitly"
       crs:Method="gaussian"
       crs:HealVersion="+2"
       crs:SourceX="0.697990"
       crs:OffsetY="0.256034"
       crs:Opacity="1.000000"
       crs:Feather="0.700000"
       crs:Seed="+2">
      <crs:Masks>
       <rdf:Seq>
        <rdf:li
         crs:What="Mask/Ellipse"
         crs:MaskValue="1.000000"
         crs:X="0.600940"
         crs:Y="0.240375"
         crs:SizeX="0.034435"
         crs:SizeY="0.034435"
         crs:Alpha="0.000000"
         crs:CenterValue="1.000000"
         crs:PerimeterValue="0.000000"/>
       </rdf:Seq>
      </crs:Masks>
      </rdf:Description>
     </rdf:li>
     <rdf:li>
      <rdf:Description
       crs:SpotType="heal"
       crs:SourceState="sourceSetExplicitly"
       crs:Method="gaussian"
       crs:HealVersion="+2"
       crs:SourceX="0.541434"
       crs:OffsetY="0.356201"
       crs:Opacity="1.000000"
       crs:Feather="0.700000"
       crs:Seed="+2">
      <crs:Masks>
       <rdf:Seq>
        <rdf:li
         crs:What="Mask/Ellipse"
         crs:MaskValue="1.000000"
         crs:X="0.499001"
         crs:Y="0.360930"
         crs:SizeX="0.018034"
         crs:SizeY="0.018034"
         crs:Alpha="0.000000"
         crs:CenterValue="1.000000"
         crs:PerimeterValue="0.000000"/>
       </rdf:Seq>
      </crs:Masks>
      </rdf:Description>
     </rdf:li>
     <rdf:li>
      <rdf:Description
       crs:SpotType="heal"
       crs:SourceState="sourceAutoComputed"
       crs:Method="gaussian"
       crs:HealVersion="+2"
       crs:SourceX="0.485513"
       crs:OffsetY="0.816227"
       crs:Opacity="1.000000"
       crs:Feather="0.700000"
       crs:Seed="+2">
      <crs:Masks>
       <rdf:Seq>
        <rdf:li
         crs:What="Mask/Ellipse"
         crs:MaskValue="1.000000"
         crs:X="0.464105"
         crs:Y="0.805451"
         crs:SizeX="0.010424"
         crs:SizeY="0.010424"
         crs:Alpha="0.000000"
         crs:CenterValue="1.000000"
         crs:PerimeterValue="0.000000"/>
       </rdf:Seq>
      </crs:Masks>
      </rdf:Description>
     </rdf:li>
    </rdf:Seq>
   </crs:RetouchAreas>
   <crs:RetouchInfo>
    <rdf:Seq>
     <rdf:li>centerX = 0.600940, centerY = 0.240375, radius = 0.034435, sourceState = sourceSetExplicitly, sourceX = 0.697990, sourceY = 0.256034, spotType = heal</rdf:li>
     <rdf:li>centerX = 0.499001, centerY = 0.360930, radius = 0.018034, sourceState = sourceSetExplicitly, sourceX = 0.541434, sourceY = 0.356201, spotType = heal</rdf:li>
     <rdf:li>centerX = 0.464105, centerY = 0.805451, radius = 0.010424, sourceState = sourceAutoComputed, sourceX = 0.485513, sourceY = 0.816227, spotType = heal</rdf:li>
    </rdf:Seq>
   </crs:RetouchInfo>
   <crs:Look>
    <rdf:Description
     crs:Name="Adobe Color"
     crs:Amount="1.000000"
     crs:UUID="B952C231111CD8E0ECCF14B86BAA7077"
     crs:SupportsAmount="false"
     crs:SupportsMonochrome="false"
     crs:SupportsOutputReferred="false"
     crs:Copyright="© 2018 Adobe Systems, Inc.">
    <crs:Group>
     <rdf:Alt>
      <rdf:li xml:lang="x-default">Profiles</rdf:li>
     </rdf:Alt>
    </crs:Group>
    <crs:Parameters>
     <rdf:Description
      crs:Version="12.0"
      crs:ProcessVersion="11.0"
      crs:ConvertToGrayscale="False"
      crs:CameraProfile="Adobe Standard"
      crs:LookTable="E1095149FDB39D7A057BAB208837E2E1">
     <crs:ToneCurvePV2012>
      <rdf:Seq>
       <rdf:li>0, 0</rdf:li>
       <rdf:li>22, 16</rdf:li>
       <rdf:li>40, 35</rdf:li>
       <rdf:li>127, 127</rdf:li>
       <rdf:li>224, 230</rdf:li>
       <rdf:li>240, 246</rdf:li>
       <rdf:li>255, 255</rdf:li>
      </rdf:Seq>
     </crs:ToneCurvePV2012>
     <crs:ToneCurvePV2012Red>
      <rdf:Seq>
       <rdf:li>0, 0</rdf:li>
       <rdf:li>255, 255</rdf:li>
      </rdf:Seq>
     </crs:ToneCurvePV2012Red>
     <crs:ToneCurvePV2012Green>
      <rdf:Seq>
       <rdf:li>0, 0</rdf:li>
       <rdf:li>255, 255</rdf:li>
      </rdf:Seq>
     </crs:ToneCurvePV2012Green>
     <crs:ToneCurvePV2012Blue>
      <rdf:Seq>
       <rdf:li>0, 0</rdf:li>
       <rdf:li>255, 255</rdf:li>
      </rdf:Seq>
     </crs:ToneCurvePV2012Blue>
     </rdf:Description>
    </crs:Parameters>
    </rdf:Description>
   </crs:Look>
  </rdf:Description>
 </rdf:RDF>
</x:xmpmeta>
